src/assets/images/akar-icons_twitter-fill.svg

<svg width="20" height="20" viewBox="0 0 20 20" fill="none" xmlns="http://www.w3.org/2000/svg">
<g id="akar-icons:twitter-fill">
<path id="Vector" d="M19.7029 4.11366C19.0071 4.42199 18.2596 4.63033 17.4737 4.72449C18.2846 4.23932 18.8912 3.47572 19.1804 2.57616C18.4186 3.02865 17.5849 3.34716 16.7154 3.51783C16.1307 2.89355 15.3563 2.47977 14.5124 2.34072C13.6684 2.20168 12.8022 2.34515 12.0481 2.74887C11.2941 3.15259 10.6944 3.79396 10.3422 4.57341C9.99003 5.35287 9.90503 6.22679 10.1004 7.05949C8.55682 6.98199 7.04677 6.58079 5.66827 5.88192C4.28977 5.18305 3.07362 4.20213 2.09875 3.00283C1.76542 3.57783 1.57375 4.24449 1.57375 4.95449C1.57338 5.59366 1.73078 6.22303 2.03198 6.78677C2.33319 7.35051 2.76888 7.83119 3.30042 8.18616C2.68398 8.16655 2.08114 7.99998 1.54208 7.70033V7.75033C1.54202 8.64678 1.85211 9.51564 2.41974 10.2095C2.98736 10.9033 3.77756 11.3794 4.65625 11.557C4.0844 11.7118 3.48486 11.7346 2.90292 11.6237C3.15083 12.395 3.63375 13.0695 4.28406 13.5528C4.93437 14.036 5.71951 14.3038 6.52958 14.3187C5.15444 15.3982 3.45616 15.9837 1.70792 15.9812C1.39823 15.9812 1.08881 15.9632 0.78125 15.927C2.55581 17.068 4.62153 17.6735 6.73125 17.6712C13.8729 17.6712 17.7771 11.7562 17.7771 6.62616C17.7771 6.45949 17.7729 6.29116 17.7654 6.12449C18.5248 5.57531 19.1803 4.89524 19.7013 4.11616L19.7029 4.11366Z" fill="white"/>
</g>
</svg>

<svg xmlns="http://www.w3.org/2000/svg" width="20" height="20" fill="none"><path fill="#fff" d="M19.703 4.114a7.773 7.773 0 0 1-2.23.61 3.891 3.891 0 0 0 1.707-2.148 7.75 7.75 0 0 1-2.465.942A3.883 3.883 0 0 0 10.1 7.059 11.024 11.024 0 0 1 2.1 3.003 3.883 3.883 0 0 0 3.3 8.186 3.872 3.872 0 0 1 1.541 7.7v.05a3.883 3.883 0 0 0 3.114 3.807 3.91 3.91 0 0 1-1.753.067 3.885 3.885 0 0 0 3.627 2.695A7.79 7.79 0 0 1 .78 15.927a10.98 10.98 0 0 0 5.95 1.744c7.142 0 11.046-5.915 11.046-11.045 0-.167-.004-.335-.012-.502a7.893 7.893 0 0 0 1.936-2.008l.002-.002Z"/></svg>
